X:32
T:Humours of Tulla
M:C|
L:1/8
Q:120
R:Reel (Key of D)
K:Dmaj
"D"d2 Ad BdAB | d2 fd "G"edBc | "D"d2 Ad BdAd | "G"(3Bcd ef "A"gefe |
"D"d2 Ad BdAB | d2 fd "G"edBc | "D"d2 Ad BdAd | "G"(3Bcd ef "A"g2 fg |
"D"af ~f2 df ~f2 | af ~f2 "A"ge ~e2 | "D"af ~f2 dfed | "G"(3Bcd ef "A"g2
 fg |
"D"af ~f2 bf ~f2 | af ~f2 "A"ge ~e2 | "D"af ~f2 dfed | "G"(3Bcd ef "A"g2
 fe |]

